X:1
T:Title
%%score ( 1 2 ) { 3 | 4 }
L:1/8
Q:1/4=110
M:4/4
K:F
V:1 treble nm="Grand Piano, Soprano"
V:2 treble 
V:3 bass nm="Choir Pad, Grosmont, 77.77"
V:4 bass 
V:1
 [FA]2 [DF]2 D2 [^CE]2 | [DF]2 [DG]2 [EA]4 | [FA]2 [Ed]2 [Fc]2 [FB]2 | [FA]2 [EG]2 F4 | %4
w: By~Samuel~Sebastian~Wesley,~1864 * * *||||
 [Fd]2 [Be]2 [Af]2 e-[Ee] | [Fd]2 cB [CA]4 | [DF]2 [EG]2 [FA]2 [DG]2 | [DF]2 [^CE]2 D4- | D4 z4 |] %9
w: |||||
V:2
 x8 | x8 | x8 | x8 | z4 z2 .G2 | z2 G2 z4 | x8 | x8 | x8 |] %9
V:3
 A,2 A,2 B,2 A,2 | A,2[K:treble] D2 ^C4 | A,2 B,2 C2 D2 | C2 C[K:bass]B, A,4 | B,2 C2 C2 C2 | %5
 B,A, G,2 A,4 | D2 C2 C2 B,2 | A,2 A,G, F,4- | F,4 z4 |] %9
V:4
 D,2 F,2 G,2 E,2 | D,2 B,,2 A,,4 | D,2 G,,2 A,,2 B,,2 | C,2 C,2 F,4 | z2 G,2 F,2 C,2 | %5
 D,2 E,2 F,4 | B,2 G,2 F,2 G,2 | z2 A,,2 D,4- | D,4 z4 |] %9

